X:1
T:The Cumberland and the Merrimac
M:3/4
L:1/4
K:G
 D| G2 G| A d2| c A2-| A2 F| G2 F| D2 C| D3| z2 G| A2 A| d2 e| f d2-|\
 d d- e| d2 c| A- G F| G3| z2 G| A2 A| d2 e| f e d-| d2 e| d2 c| A2 F|\
 G3| z A B| c c B| A d2| c A2-| A2 F| G F2| D ^C2| D2||
